assets/logo-k.svg

<svg xmlns="http://www.w3.org/2000/svg" viewBox="0 0 100 100"><path d="M38.24 85.86h-3V77l3-3zm-3-29.61l3-3v8.88l-3 3zm0-50.33h3v35.53l-3 3zm17.7 32.57h8.82l-8.82 8.88-8.82 8.88v-8.88zm-5.88 26.64l29.41 29.61H100L58.82 53.29l32.36-32.57H58.82l-14.7 14.81V0H0l11.76 11.84 5.89-5.92h2.94v53.29H8.82l11.77 11.84v8.89H8.82l11.77 11.84h44.12L52.94 79.94l-5.88 5.92h-2.94V68.09z"/></svg>

<svg xmlns="http://www.w3.org/2000/svg" viewBox="0 0 100 100"><title>logo-k</title><path d="M38.24,85.86h-3V77l3-3Zm-3-29.61,3-3v8.88l-3,3Zm0-50.33h3V41.45l-3,3ZM52.94,38.49h8.82l-8.82,8.88-8.82,8.88V47.37ZM47.06,65.13,76.47,94.74H100L58.82,53.29,91.18,20.72H58.82L44.12,35.53V0H0L11.76,11.84l5.89-5.92h2.94V59.21H8.82L20.59,71.05v8.89H8.82L20.59,91.78H64.71L52.94,79.94l-5.88,5.92H44.12V68.09Z" transform="translate(0 0)"/></svg>
